proprietary/assets/icons/mensen-aan-het-werk/persoon-headset-voor-beeldschermen.svg

<svg height="64" viewBox="0 0 64 64" width="64" xmlns="http://www.w3.org/2000/svg"><path d="m0 0h64v64h-64z" fill="none"/><path d="m18.8347 45h-11.8347v-13h14.1391c.1406-.352.3342-.698.6216-.9971-.0612-1.1759-.0584-2.1638-.0107-3.0029h-16.75c-1.1045 0-2 .8955-2 2v17c0 1.1045.8955 2 2 2h9.8079c.3736-.8683.8094-1.6307 1.325-2.1733.7482-.789 1.7414-1.3458 2.7018-1.8267z"/><path d="m59 28h-17.695c.0441.8395.0563 1.8304.0153 3.0229.277.2944.4648.6328.6021.9771h15.0776v13h-12.7831c1.2026.5947 2.1196 1.204 2.7109 1.8267.5156.5427.9514 1.3051 1.325 2.1733h10.7472c1.1045 0 2-.8955 2-2v-17c0-1.1045-.8955-2-2-2z"/><path d="m5 26h16.994c.2587-1.2662.6549-1.9641 1.0109-2.4219.4572-.589 1.0411-1.1118 1.746-1.5781h-17.7509v-13h20v11.8688c1.8896-.7247 3.0776-.8867 4-.8935v-12.9753c0-1.1045-.8955-2-2-2h-24c-1.1045 0-2 .8955-2 2v17c0 1.1045.8955 2 2 2z"/><path d="m59 5h-24c-1.1045 0-2 .8955-2 2v13.2667c.563.1805 1.0533.4171 1.4961.6547.9244-.1475 1.7537-.1229 2.5039.0527v-11.9741h20v13h-17.9945c.5169.4453.9783 1.0031 1.3715 1.7061.1627.2903.4972.8885.7273 2.2939h17.8957c1.1045 0 2-.8955 2-2v-17c0-1.1045-.8955-2-2-2z"/><path d="m37.1537 44.8075c-.9636-.263-1.1132-1.241-1.2162-2.2386.7235-.8082 1.3382-1.7144 1.8044-2.7523-.2053.1129-.4269.2274-.6863.3424-.8557.3795-1.9348.545-3.0319.5101-.1016.2693-.3939.4592-.7385.4592h-2.8339c-.373 0-.8748-.3766-.8748-1.1299 0-.7532.5017-1.1299.8748-1.1299h2.8339c.4299 0 .7429.309.7434.4853.5327.0143 1.8549-.0039 2.9714-.5845.9231-.48 1.4842-1.2957 1.5511-1.7716 1.2538-.3864 1.5047-1.952 1.5047-2.9282 0-.9757-.1719-1.5038-.5223-1.6674-.1689-.0786-.3339-.0779-.4807-.0467.1261-2.0331.2516-6.0614-.5957-7.5751-.9264-1.6548-2.1584-2.0839-4.3046-1.543-1.4078-.7469-2.3663-1.4857-4.8326-.8132-1.7137.4672-3.5893 1.2302-4.5777 2.5031-1.0663 1.3737-.8607 5.3801-.6805 7.438-.1589-.0435-.3453-.0512-.5345.0369-.3504.1636-.5223.6917-.5223 1.6674 0 .9761.2509 2.5417 1.5047 2.9282.2964 2.4669 1.2865 4.1771 2.6102 5.6022-.0922.8538-.1825 1.6775-.9318 2.0823-1.6431.4443-6.8052 1.9437-8.4346 3.6596-1.9384 2.0408-2.6924 9.6582-2.6924 9.6582h32.939s-.7281-7.6174-2.6667-9.6583c-1.4946-1.574-6.116-2.9709-8.1796-3.5342z"/></svg>

<?xml version="1.0" encoding="utf-8"?>
<!-- Generator: Adobe Illustrator 19.1.0, SVG Export Plug-In . SVG Version: 6.00 Build 0)  -->
<svg version="1.2" baseProfile="tiny" xmlns="http://www.w3.org/2000/svg" xmlns:xlink="http://www.w3.org/1999/xlink" x="0px"
	 y="0px" width="64px" height="64px" viewBox="0 0 64 64" xml:space="preserve">
<g id="_x36_4px_Box">
	<rect fill="none" width="64" height="64"/>
</g>
<g id="Icon">
	<g>
		<path d="M18.8347,45H7V32h14.1391c0.1406-0.352,0.3342-0.698,0.6216-0.9971C21.6995,29.827,21.7023,28.8391,21.75,28H5
			c-1.1045,0-2,0.8955-2,2v17c0,1.1045,0.8955,2,2,2h9.8079c0.3736-0.8683,0.8094-1.6307,1.325-2.1733
			C16.8811,46.0377,17.8743,45.4809,18.8347,45z"/>
		<path d="M59,28H41.305c0.0441,0.8395,0.0563,1.8304,0.0153,3.0229c0.277,0.2944,0.4648,0.6328,0.6021,0.9771H57v13H44.2169
			c1.2026,0.5947,2.1196,1.204,2.7109,1.8267c0.5156,0.5427,0.9514,1.3051,1.325,2.1733H59c1.1045,0,2-0.8955,2-2V30
			C61,28.8955,60.1045,28,59,28z"/>
		<path d="M5,26h16.994c0.2587-1.2662,0.6549-1.9641,1.0109-2.4219c0.4572-0.589,1.0411-1.1118,1.746-1.5781H7V9h20v11.8688
			c1.8896-0.7247,3.0776-0.8867,4-0.8935V7c0-1.1045-0.8955-2-2-2H5C3.8955,5,3,5.8955,3,7v17C3,25.1045,3.8955,26,5,26z"/>
		<path d="M59,5H35c-1.1045,0-2,0.8955-2,2v13.2667c0.563,0.1805,1.0533,0.4171,1.4961,0.6547
			c0.9244-0.1475,1.7537-0.1229,2.5039,0.0527V9h20v13H39.0055c0.5169,0.4453,0.9783,1.0031,1.3715,1.7061
			c0.1627,0.2903,0.4972,0.8885,0.7273,2.2939H59c1.1045,0,2-0.8955,2-2V7C61,5.8955,60.1045,5,59,5z"/>
		<path d="M37.1537,44.8075c-0.9636-0.263-1.1132-1.241-1.2162-2.2386c0.7235-0.8082,1.3382-1.7144,1.8044-2.7523
			c-0.2053,0.1129-0.4269,0.2274-0.6863,0.3424c-0.8557,0.3795-1.9348,0.545-3.0319,0.5101
			c-0.1016,0.2693-0.3939,0.4592-0.7385,0.4592h-2.8339c-0.373,0-0.8748-0.3766-0.8748-1.1299c0-0.7532,0.5017-1.1299,0.8748-1.1299
			h2.8339c0.4299,0,0.7429,0.309,0.7434,0.4853c0.5327,0.0143,1.8549-0.0039,2.9714-0.5845c0.9231-0.48,1.4842-1.2957,1.5511-1.7716
			c1.2538-0.3864,1.5047-1.952,1.5047-2.9282c0-0.9757-0.1719-1.5038-0.5223-1.6674c-0.1689-0.0786-0.3339-0.0779-0.4807-0.0467
			c0.1261-2.0331,0.2516-6.0614-0.5957-7.5751c-0.9264-1.6548-2.1584-2.0839-4.3046-1.543
			c-1.4078-0.7469-2.3663-1.4857-4.8326-0.8132c-1.7137,0.4672-3.5893,1.2302-4.5777,2.5031
			c-1.0663,1.3737-0.8607,5.3801-0.6805,7.438c-0.1589-0.0435-0.3453-0.0512-0.5345,0.0369
			c-0.3504,0.1636-0.5223,0.6917-0.5223,1.6674c0,0.9761,0.2509,2.5417,1.5047,2.9282c0.2964,2.4669,1.2865,4.1771,2.6102,5.6022
			c-0.0922,0.8538-0.1825,1.6775-0.9318,2.0823c-1.6431,0.4443-6.8052,1.9437-8.4346,3.6596C15.815,50.3826,15.061,58,15.061,58H48
			c0,0-0.7281-7.6174-2.6667-9.6583C43.8387,46.7677,39.2173,45.3708,37.1537,44.8075z"/>
	</g>
</g>
</svg>
